src/icons/logos/tail-UL.svg

<svg>
    <defs>
        <path d="M659.5555,1 C670.3635,1 679.1255,9.764 679.1255,20.575 C679.1255,21.731 679.025,22.864 678.833,23.965 L521.3915,631.934 C518.5705,638.453 508.106,652.3145 487.193,652.75 L486.556,652.759 L2,652.838 C338.535,231.2945 507.627,19.5075 509.275,17.477 C516.5705,8.4935 528.951,1.148 541.5525,1 L659.5555,1 Z" id="path-1"></path>
    </defs>
    <g id="SRILANKANAIRLINES" stroke="none" stroke-width="1" fill="none" fill-rule="evenodd">
        <g id="Mask-Raw" transform="translate(88.000000, 88.000000)">
            <path d="M659.5555,0.25 L541.5525,0.25 C529.417951,0.392464104 516.653519,7.20156168 508.692801,17.0041958 L504.143997,22.693252 L408.78043,142.119216 L0.441350848,653.588254 L486.556122,653.509 L487.203595,653.499925 C496.850749,653.299046 504.993321,650.296167 511.536706,645.215715 C516.398031,641.441257 520.090369,636.67697 521.967184,632.487618 L522.102948,632.178405 L679.55905,24.1530201 L679.57185,24.0938457 C679.773302,22.9386432 679.8755,21.7624542 679.8755,20.575 C679.8755,9.34991032 670.777837,0.25 659.5555,0.25 Z M541.561308,1.74994828 L659.5555,1.74994828 C669.949327,1.74994828 678.3755,10.1782545 678.3755,20.575 L678.3755,20.9873085 C678.353341,21.8108328 678.282538,22.6275948 678.159826,23.4338938 L678.099,23.806 L520.6795,631.689 L520.703183,631.636141 C518.963128,635.657204 515.375715,640.335962 510.616794,644.03091 C504.32299,648.917581 496.490164,651.80623 487.177385,652.000163 L486.545405,652.009075 L3.558,652.0875 L468.817257,69.3318426 L505.306926,23.640727 L509.555328,18.3259168 L509.857335,17.9496367 C517.549486,8.47771051 529.904809,1.88684959 541.561308,1.74994828 Z" id="BG" fill="#000000" fill-rule="nonzero"></path>
            <mask id="mask-2" fill="white">
                <use xlink:href="#path-1"></use>
            </mask>
            <use id="FG" fill="#FFFFFF" xlink:href="#path-1"></use>
            <g id="Group" mask="url(#mask-2)" fill-rule="nonzero">
                <g transform="translate(334.000000, 411.000000) scale(-1, 1) translate(-334.000000, -411.000000) translate(32.000000, 169.000000)" id="Path">
                    <path d="M0,0 L1.21659533,0.194626943 L2.19393511,0.388810905 C9.20346921,1.87619535 31.362455,8.50588646 44.4377021,34.4598063 L46.2513981,34.481388 L47.888232,34.5736445 C52.5494596,34.9611787 59.4569688,36.6679783 65.6247179,44.1851596 C76.3282883,56.7900867 69.7383009,58.7867724 82.684393,70.7125548 C75.6266403,68.4849599 67.4682635,69.2999336 60.259175,52.6608865 C55.5815221,42.1205594 48.4274648,37.2442999 44.9880142,35.4241919 C45.9510604,38.1000223 47.0516846,40.5721093 48.1523088,43.478849 L49.2303393,46.520687 L50.2984619,49.7163407 C60.4072315,80.5943944 72.0690004,130.799836 166.84559,164.842577 L170.22529,166.037316 C289.986961,207.437982 338.125512,217.856063 395.11033,346.689829 C416.407072,394.749235 450.444992,441.724523 500,484 L329.876099,483.41882 C291.365526,452.696881 260.783132,416.655003 245.095252,374.860754 L243.135291,369.518948 C216.384529,295.360671 217.587642,247.278664 124.437873,192.727537 L121.109935,190.798935 C48.3201219,148.784828 34.9379301,102.493884 29.6103781,72.7943157 L26.8112055,55.9968979 L26.2315434,52.8842456 C23.3778695,38.4444845 15.9773946,12.289804 0,0 Z" fill="#CF0012"></path>
                    <path d="M264,199 L271.194006,200.995575 C378.300854,231.165047 431.485072,263.145885 499.939592,371.759341 L502.25293,375.449599 C532.388694,423.980763 567.12333,458.260921 604,484 L528.991712,483.745928 C482.461652,452.351292 436.487168,404.985154 409.741424,348.160907 L407.863968,344.086034 C356.774375,231.254709 267.548595,200.197169 264,199 L264,199 Z" fill="#087F52"></path>
                    <path d="M168,228 L170.107742,230.452467 C175.749603,237.26527 191.458801,257.887902 201.670039,287.483739 C214.13535,323.843992 212.162817,369.396443 242.312433,421.62175 C254.772903,442.997255 269.23145,463.29031 288,483 L211.974089,482.74106 C169.460389,424.535679 176.61374,367.019284 178.972214,308.1015 C180.629689,263.366133 168,228 168,228 Z" fill="#DD5F27"></path>
                </g>
            </g>
        </g>
    </g>
</svg>

<svg width="856" height="830" xmlns="http://www.w3.org/2000/svg" xmlns:xlink="http://www.w3.org/1999/xlink"><title>SRILANKANAIRLINES</title><defs><path d="M659.556 1c10.808 0 19.57 8.764 19.57 19.575 0 1.156-.101 2.289-.293 3.39L521.391 631.934c-2.82 6.519-13.285 20.38-34.198 20.816l-.637.009L2 652.838C338.535 231.295 507.627 19.508 509.275 17.477 516.571 8.493 528.951 1.148 541.553 1h118.003z" id="a"/><path id="c" d="M.001.127h603.581v437.87H.002z"/></defs><g transform="translate(88 88)" fill="none" fill-rule="evenodd"><path d="M659.556.25H541.552c-12.134.142-24.898 6.952-32.86 16.754l-4.548 5.69-95.364 119.425L.441 653.59l486.115-.08.648-.01c9.647-.2 17.79-3.203 24.333-8.283 4.861-3.775 8.553-8.539 10.43-12.728l.136-.31L679.559 24.153l.013-.06c.201-1.154.303-2.33.303-3.518 0-11.225-9.097-20.325-20.32-20.325zM541.56 1.75h117.995c10.393 0 18.82 8.428 18.82 18.825v.412c-.023.824-.093 1.64-.216 2.447l-.061.372-157.42 607.883.024-.053c-1.74 4.021-5.327 8.7-10.086 12.395-6.294 4.887-14.127 7.775-23.44 7.97l-.632.008-482.987.078 465.26-582.755 36.489-45.691 4.248-5.315.302-.376c7.692-9.472 20.048-16.063 31.704-16.2z" fill="#000" fill-rule="nonzero"/><mask id="b" fill="#fff"><use xlink:href="#a"/></mask><use fill="#FFF" xlink:href="#a"/><g mask="url(#b)"><path d="M115 488c91.489-5.003 186.424-49.975 225.478-133.374C364.97 302.35 398.658 266.607 440 252c-55.885 13.452-84.983 29.982-111.784 55.732-39.804 38.052-30.234 49.199-82.296 105.697C195.39 466.09 132.613 482.23 115 488" fill="#009247"/><path d="M354 507.779c52.127-27.1 82.24-48.85 108.487-92.745C488.354 371.515 481.022 318.459 515 278c-20.85 74.05 15.059 108.788-30.888 173.68C439.326 514.66 354 507.78 354 507.78" fill="#F06022"/><g transform="translate(21 118)"><mask id="d" fill="#fff"><use xlink:href="#c"/></mask><path d="M582.501 25.449c-2.29 0-3.823-1.531-3.823-3.837 0-1.914 1.534-3.837 3.823-3.837v-6.522c-3.823 3.838-6.895 8.062-8.816 11.895-6.509 0-16.09 5.372-19.54 16.118-1.907 6.517-6.513 9.21-6.513 9.21s11.497-1.157 14.943-11.516c1.916-6.138 6.522-10.358 10.354-11.511-9.194 17.654-6.517 48.347-54.426 75.211-61.691 30.692-126.077 31.463-163.631 100.53-16.872 31.076-29.894 69.069-59.02 100.536C211.929 393.046 93.126 425.657.003 437.934c118.802 1.54 267.495-24.936 369.813-98.224 59.019-42.591 68.986-88.254 87.37-142.356C479.8 131.352 563.735 133.658 582.5 56.146V25.449zm0-7.674c2.303 0 3.842 1.923 3.842 3.837 0 2.306-1.539 3.837-3.842 3.837v30.697c.77-2.684 1.152-5.368 1.539-8.053 4.21-29.165 10.727-39.911 19.544-47.968-7.665.77-15.334 5.377-21.083 11.128v6.522z" fill="#D6143F" mask="url(#d)"/></g></g></g></svg>
